X:1
T: Alan MacPherson is 80 years old
C:Bruce Shawyer
R:Jig
Q:180
K:Bm
M:6/8
L:1/16
|:B2B2d2 f2f2d2|B2B2d2 f6|A2A2c2 e2e2c2|A2A2c2 e6|
B2B2d2 f2f2d2|B2B2d2 f6|e2c2A2 e2c2A2|c2A2E2 B6|
d2f2b2 b2f2d2|d2f2b2 b6|c2e2a2 a2e2c2|c2e2a2 a6|
d2f2b2 b2f2d2|d2f2b2 b6|a2e2c2 a2e2c2|e2c2A2 B6:|
